X:320
T: ES ISCH NOCH NIT LANG, DASS G'REGNET HAT
N: Z0317
O: Europa, Mitteleuropa, Deutschland, Schwaben
R: Lyrisches Lied, Romanze, verlassene Liebe
M: 2/4
L: 1/16
K: F
C2 | F2G2A2B2 | c2c=Bc2
f2 | c2c=Bc2G2 | A4z2
C2 | F2G2A2B2 | c2c=Bc2
f2 | c2BAB2G2 | F4z2

